src/assets/duotone/BatteryDisable.svg

<svg width="24" height="24" viewBox="0 0 24 24"  xmlns="http://www.w3.org/2000/svg">
<path d="M20.4202 9.00047C20.2802 8.99047 20.1002 8.98047 19.9002 8.98047C19.5102 8.98047 19.2002 9.29047 19.2002 9.68047V14.3305C19.2002 14.7205 19.5102 15.0305 19.9002 15.0305C20.1002 15.0305 20.2702 15.0205 20.4402 15.0105C22.0002 14.8305 22.0002 13.7305 22.0002 12.9305V11.0705C22.0002 10.2705 22.0002 9.17047 20.4202 9.00047Z" />
<path opacity="0.4" d="M14.5 4.87004L5.52 19.09C2.87 18.71 2 17.27 2 13.86V10.14C2 6.04004 3.25 4.79004 7.35 4.79004H12.93C13.51 4.79004 14.03 4.81004 14.5 4.87004Z" />
<path opacity="0.4" d="M18.2802 10.1396V13.8596C18.2802 16.8096 15.8802 19.2096 12.9302 19.2096H7.4502L16.2302 5.30957C17.7502 5.99957 18.2802 7.45957 18.2802 10.1396Z" />
<path d="M3.99991 22.2504C3.85991 22.2504 3.71991 22.2104 3.59991 22.1304C3.24991 21.9104 3.13991 21.4504 3.36991 21.1004L15.3699 2.10036C15.5899 1.75036 16.0599 1.65036 16.3999 1.87036C16.7499 2.09036 16.8599 2.55036 16.6299 2.90036L4.62991 21.9004C4.48991 22.1304 4.24991 22.2504 3.99991 22.2504Z" />
</svg>

<?xml version="1.0" encoding="UTF-8"?>
<svg width="24" height="24" viewBox="0 0 24 24" xmlns="http://www.w3.org/2000/svg">
 <path d="m20.42 9.0005c-0.14-0.01-0.32-0.02-0.52-0.02-0.39 0-0.7 0.31-0.7 0.7v4.65c0 0.39 0.31 0.7 0.7 0.7 0.2 0 0.37-0.01 0.54-0.02 1.56-0.18 1.56-1.28 1.56-2.08v-1.86c0-0.8 0-1.9-1.58-2.07z"/>
 <path d="m14.5 4.87-8.98 14.22c-2.65-0.38-3.52-1.82-3.52-5.23v-3.72c0-4.1 1.25-5.35 5.35-5.35h5.58c0.58 0 1.1 0.02 1.57 0.08z" opacity=".4"/>
 <path d="m18.28 10.14v3.72c0 2.95-2.4 5.35-5.35 5.35h-5.48l8.78-13.9c1.52 0.69 2.05 2.15 2.05 4.83z" opacity=".4"/>
 <path d="m3.9999 22.25c-0.14 0-0.28-0.04-0.4-0.12-0.35-0.22-0.46-0.68-0.23-1.03l12-19c0.22-0.35 0.69-0.45 1.03-0.23 0.35 0.22 0.46 0.68 0.23 1.03l-12 19c-0.14 0.23-0.38 0.35-0.63 0.35z"/>
</svg>
